X:140
T: "Görög Ilona"
M: 4/4
L: 1/4
K: Eb
eefe | d2 e2 | 
cedc | B2 B2 | 
cedc | B2 c2 | 
AcBA | G2 G2 | 

